svgs/thin/bitcoin-sign.svg

<svg xmlns="http://www.w3.org/2000/svg" viewBox="0 0 320 512"><!--! Font Awesome Pro 6.3.0 by @fontawesome - https://fontawesome.com License - https://fontawesome.com/license (Commercial License) Copyright 2023 Fonticons, Inc. --><path d="M80 8C80 3.582 83.58 0 88 0C92.42 0 96 3.582 96 8V64H160V8C160 3.582 163.6 0 168 0C172.4 0 176 3.582 176 8V64.08C229.4 66.18 272 110.1 272 164C272 200.5 252.5 232.4 223.3 249.9C269.3 258.9 304 299.4 304 348C304 403.2 259.2 448 204 448H176V504C176 508.4 172.4 512 168 512C163.6 512 160 508.4 160 504V448H96V504C96 508.4 92.42 512 88 512C83.58 512 80 508.4 80 504V448H53.57C32.82 448 16 431.2 16 410.4V97.39C16 78.95 30.95 64 49.39 64H80V8zM32 97.39V248H172C218.4 248 256 210.4 256 164C256 117.6 218.4 80 172 80H49.39C39.79 80 32 87.79 32 97.39V97.39zM32 264V410.4C32 422.3 41.66 432 53.57 432H204C250.4 432 288 394.4 288 348C288 301.6 250.4 264 204 264H32z"/></svg>

<svg xmlns="http://www.w3.org/2000/svg" viewBox="0 0 320 512"><!--! Font Awesome Pro 6.4.0 by @fontawesome - https://fontawesome.com License - https://fontawesome.com/license (Commercial License) Copyright 2023 Fonticons, Inc. --><path d="M80 8c0-4.4 3.6-8 8-8s8 3.6 8 8V64h64V8c0-4.4 3.6-8 8-8s8 3.6 8 8V64.1c53.4 2.1 96 46 96 99.9c0 36.5-19.5 68.4-48.7 85.9c46 9 80.7 49.5 80.7 98.1c0 55.2-44.8 100-100 100H176v56c0 4.4-3.6 8-8 8s-8-3.6-8-8V448H96l0 56c0 4.4-3.6 8-8 8s-8-3.6-8-8l0-56H53.6C32.8 448 16 431.2 16 410.4V264 248 97.4C16 78.9 30.9 64 49.4 64H80V8zM49.4 80C39.8 80 32 87.8 32 97.4V248H172c46.4 0 84-37.6 84-84s-37.6-84-84-84H49.4zM172 264H32V410.4c0 11.9 9.7 21.6 21.6 21.6H204c46.4 0 84-37.6 84-84s-37.6-84-84-84H172z"/></svg>
